X:672
T:Angus and Alice
R:strathspey
C:Paul S. Cranford
O:20th Century Cape Breton
D:The Lighthouse, Cranford Publications
B:The Lighthouse Collection, ISBN 0-9691181-5-5
N:Contacts ...
N:..... Cranford Publications <http://www.cranfordpub.com>
H:Composed for Angus and Alice MacEachern.
Z:This abc transcription is for personal use only,
Z:provided this notice remains attached.
Z:Used by permission of the composer and publisher.
Z:Paul Stewart Cranford 
L:1/8
Q:266
M:C
K:G
g>BG>B AB|d/c/B/A/ G>B Af|g>BG>B AB|c>AB<d e2 e>f:|!
g>baBG>B|A>cB>d c>ed<f|g>baBG>B|c>AB<d e2 (3eff|!
g>baBG>B|A>cB<d c>ed>f|g>bafg>f|e>dB>d e2 e>f|]!
